assets/icons/24px/outline/tray-stacked-24px.svg

<svg width="24" height="24" viewBox="0 0 24 24" fill="none" xmlns="http://www.w3.org/2000/svg">
<path d="M7.5 14.5H3L3 9H6.6H8.01596C8.41608 9 8.61614 9 8.81073 9.039C8.83043 9.04295 8.85008 9.0472 8.86966 9.05174C9.06298 9.09659 9.24518 9.17922 9.60958 9.34448V9.34448C10.7422 9.85815 11.3085 10.115 11.9096 10.1331C11.9698 10.1349 12.0302 10.1349 12.0904 10.1331C12.6915 10.115 13.2578 9.85815 14.3904 9.34448V9.34448C14.7548 9.17922 14.937 9.09659 15.1303 9.05174C15.1499 9.0472 15.1696 9.04295 15.1893 9.039C15.3839 9 15.5839 9 15.984 9H17.4H21V14.5H16.5" stroke="white" stroke-width="2"/>
<path d="M3 14.5C4.40589 14.5 5.19411 14.5 6.6 14.5H7.97755C8.26627 14.5 8.41063 14.5 8.55112 14.52C8.73778 14.5467 8.91973 14.5995 9.09158 14.6771C9.22092 14.7355 9.34279 14.8129 9.58653 14.9676V14.9676C10.3643 15.4615 10.7532 15.7084 11.1642 15.8276C11.7101 15.986 12.2899 15.986 12.8358 15.8276C13.2468 15.7084 13.6357 15.4615 14.4135 14.9676V14.9676C14.6572 14.8129 14.7791 14.7355 14.9084 14.6771C15.0803 14.5995 15.2622 14.5467 15.4489 14.52C15.5894 14.5 15.7337 14.5 16.0224 14.5H17.4H21V17C21 18.8856 21 19.8284 20.4142 20.4142C19.8284 21 18.8856 21 17 21H7C5.11438 21 4.17157 21 3.58579 20.4142C3 19.8284 3 18.8856 3 17L3 14.5Z" stroke="white" stroke-width="2"/>
<path d="M3 9V8.79626C3 7.91187 3 7.46968 3.17552 7.07882C3.35104 6.68796 3.68154 6.39419 4.34254 5.80663L6.36334 4.01036C6.92528 3.51086 7.20625 3.26111 7.54964 3.13056C7.89303 3 8.26895 3 9.0208 3H14.9792C15.731 3 16.107 3 16.4504 3.13056C16.7938 3.26111 17.0747 3.51086 17.6367 4.01036L19.6575 5.80663C20.3185 6.39419 20.649 6.68796 20.8245 7.07882C21 7.46968 21 7.91187 21 8.79626V9" stroke="white" stroke-width="2"/>
</svg>

<svg width="24" height="24" fill="none" xmlns="http://www.w3.org/2000/svg"><path d="M7.5 14.5H3V9h5.016c.4 0 .6 0 .795.039l.059.013c.193.045.375.127.74.292 1.132.514 1.699.771 2.3.79h.18c.601-.019 1.168-.276 2.3-.79.365-.165.547-.247.74-.292.02-.005.04-.01.06-.013.194-.039.394-.039.794-.039H21v5.5h-4.5M3 14.5h4.978c.288 0 .433 0 .573.02.187.027.369.08.54.157.13.059.252.136.496.29.777.494 1.166.741 1.577.86a3 3 0 0 0 1.672 0c.41-.119.8-.366 1.578-.86.243-.154.365-.232.494-.29.172-.077.354-.13.54-.157.141-.02.286-.02.574-.02H21V17c0 1.886 0 2.828-.586 3.414C19.828 21 18.886 21 17 21H7c-1.886 0-2.828 0-3.414-.586C3 19.828 3 18.886 3 17v-2.5zM3 9v-.204c0-.884 0-1.326.176-1.717.175-.391.506-.685 1.167-1.272l2.02-1.797c.562-.5.843-.749 1.187-.88C7.893 3 8.269 3 9.02 3h5.96c.751 0 1.127 0 1.47.13.344.131.625.38 1.187.88l2.02 1.797c.662.587.992.881 1.168 1.272.175.39.175.833.175 1.717V9" stroke="#fff" stroke-width="2"/></svg>
